!!!SOCIAL_FUNCTION:	unclassified songs
!!!PDT:	1909
!!!OTL: No_199_Song_of_Thanks_for_a_Pony.krn
!!!REG: Great_Lakes
!!!LANG: Non-Tone
!!!LING_GROUP: Algonquin
**kern
*staff1
=1-
*clefG2
*k[f#c#g#d#a#]
*M3/4
8.a#/L
16a#/Jk
8.b/L
16a#/Jk
8.a#/L
16g#/Jk
=2
8.b/L
16a#/Jk
4a#/
4g#/
=3
8.d#/L
16d#/Jk
2d#/
=4
8.g#/L
16g#/Jk
8.a#/L
16g#/Jk
8g#/L
8d#/J
=5||
*M2/4
8g#/L
8d#/J
4d#/
*clefF4
=6||
8.B\L
16A#\Jk
8.B\L
16A#\Jk
=7
(A#q/
4A#\)
4G#\
=8||
*M3/4
8.A#\L
16A#\Jk
8.B\L
16A#\Jk
8A#\L
8G#\J
=9
8.B\L
16A#\Jk
4A#\
4G#\
=10
8.D#\L
16D#\Jk
2D#\
==
*-
